Adwaita++-Dark/actions/22/media-skip-forward.svg

<svg height="22" viewBox="0 0 22 22" width="22" xmlns="http://www.w3.org/2000/svg">
  <path d="m0 4v8l7-4zm7 4v4l7-4-7-4zm7 0v4h2v-8h-2z" fill="#e6ddff" transform="translate(3 3)"/>
</svg>

<svg xmlns="http://www.w3.org/2000/svg" width="22" height="22" viewBox="0 0 22 22">
 <defs>
  <style id="current-color-scheme" type="text/css">
   .ColorScheme-Text { color:#E6DDFF; } .ColorScheme-Highlight { color:#4285f4; }
  </style>
 </defs>
 <path style="fill:currentColor" class="ColorScheme-Text" d="M 0 4 L 0 12 L 7 8 L 0 4 z M 7 8 L 7 12 L 14 8 L 7 4 L 7 8 z M 14 8 L 14 12 L 16 12 L 16 4 L 14 4 L 14 8 z" transform="translate(3 3)"/>
</svg>
